assets/imgs/whatsapp-claro.svg

<svg width="16" height="17" viewBox="0 0 16 17" fill="none" xmlns="http://www.w3.org/2000/svg">
<path fill-rule="evenodd" clip-rule="evenodd" d="M13.6688 2.36553C12.1648 0.840901 10.1645 0.000894152 8.03346 0C3.64233 0 0.0685899 3.61824 0.0668237 8.06536C0.0662349 9.48696 0.433029 10.8747 1.13021 12.0979L0 16.2776L4.22324 15.1559C5.38691 15.7986 6.69699 16.1373 8.03022 16.1377H8.03356C12.4242 16.1377 15.9983 12.5191 16 8.07182C16.0009 5.91651 15.173 3.89006 13.6688 2.36553ZM8.03346 14.7755H8.03071C6.84261 14.775 5.67736 14.4517 4.66058 13.841L4.4189 13.6956L1.91277 14.3613L2.58169 11.8874L2.4242 11.6337C1.76136 10.5663 1.41134 9.33257 1.41193 8.06586C1.41331 4.36953 4.38377 1.36229 8.03611 1.36229C9.80473 1.36289 11.4673 2.06112 12.7174 3.32834C13.9675 4.59555 14.6556 6.27993 14.655 8.07132C14.6534 11.7679 11.6832 14.7755 8.03346 14.7755V14.7755ZM11.6655 9.75441C11.4665 9.65347 10.4878 9.16606 10.3053 9.0987C10.123 9.03144 9.99009 8.99796 9.85752 9.19964C9.72476 9.40132 9.34334 9.85535 9.22716 9.98977C9.11098 10.1243 8.995 10.1412 8.7959 10.0402C8.5968 9.9394 7.95545 9.7265 7.19507 9.03989C6.60338 8.50548 6.20391 7.8455 6.08772 7.64382C5.97174 7.44194 6.08674 7.34338 6.17506 7.23251C6.39054 6.96158 6.60632 6.67753 6.67265 6.54311C6.73908 6.40859 6.70582 6.29086 6.65597 6.19002C6.60632 6.08918 6.20822 5.09717 6.04239 4.69351C5.88068 4.30068 5.71671 4.35373 5.59445 4.34757C5.47846 4.34171 5.3457 4.34052 5.21293 4.34052C5.08027 4.34052 4.86459 4.39089 4.68207 4.59277C4.49966 4.79455 3.98548 5.28206 3.98548 6.27407C3.98548 7.26609 4.69875 8.22442 4.79825 8.35894C4.89775 8.49346 6.20194 10.5291 8.1987 11.402C8.67363 11.6099 9.04435 11.7338 9.33353 11.8267C9.81042 11.9801 10.2442 11.9584 10.5873 11.9065C10.9698 11.8486 11.7649 11.4189 11.9309 10.9482C12.0968 10.4774 12.0968 10.0739 12.0469 9.98977C11.9973 9.90572 11.8645 9.85535 11.6655 9.75441V9.75441Z" fill="#f9f9f9"/>
</svg>

<svg width="16" height="17" viewBox="0 0 16 17" fill="none" xmlns="http://www.w3.org/2000/svg"><path fill-rule="evenodd" clip-rule="evenodd" d="M13.669 2.366A7.866 7.866 0 008.033 0C3.643 0 .07 3.618.067 8.065a8.13 8.13 0 001.063 4.033L0 16.278l4.223-1.122a7.88 7.88 0 003.807.982h.004c4.39 0 7.964-3.619 7.966-8.066a8.067 8.067 0 00-2.331-5.706zm-5.636 12.41h-.002a6.552 6.552 0 01-3.37-.935l-.242-.145-2.506.665.669-2.474-.158-.253a6.749 6.749 0 01-1.012-3.568c.001-3.696 2.972-6.704 6.624-6.704 1.769 0 3.431.7 4.681 1.966a6.707 6.707 0 011.938 4.743c-.002 3.697-2.972 6.704-6.622 6.704zm3.633-5.022c-.2-.1-1.178-.588-1.36-.655-.183-.068-.316-.101-.448.1-.133.202-.515.656-.63.79-.117.135-.233.152-.432.051-.2-.1-.84-.313-1.6-1-.593-.535-.992-1.194-1.108-1.396-.116-.202-.001-.3.087-.411.216-.271.431-.555.498-.69.066-.134.033-.252-.017-.353-.05-.1-.448-1.093-.614-1.496-.161-.393-.325-.34-.448-.346a7.86 7.86 0 00-.381-.007.727.727 0 00-.53.252c-.183.202-.698.69-.698 1.681 0 .992.714 1.95.813 2.085.1.134 1.404 2.17 3.4 3.043.476.208.846.332 1.136.425.476.153.91.131 1.253.08.383-.058 1.178-.488 1.344-.959.166-.47.166-.874.116-.958-.05-.084-.183-.135-.382-.236z" fill="#f9f9f9"/></svg>
